X: 43069
T: Wind That Shakes The Barley, The
R: slide
M: 12/8
K: Gmajor
e|d2 B G2 A B2 A B2 e|d2 B G2 A B2 A A2 e|d2 B G2 A B2 A B2 c|d2 f g2 e d2 B B2:|
d|g3 g3 f2 g a3|g2 f g2 e d2 B B2 d|g3 g3 f2 g a3|b2 a g2 e d2 B B2:|

